svgs/sharp-regular/cloud-fog.svg

<svg xmlns="http://www.w3.org/2000/svg" viewBox="0 0 640 512"><!--! Font Awesome Pro 6.6.0 by @fontawesome - https://fontawesome.com License - https://fontawesome.com/license (Commercial License) Copyright 2024 Fonticons, Inc. --><path d="M432 128l0 48 48 0c26.5 0 48 21.5 48 48l0 48-48 0-320 0-48 0 0-48c0-20.8 13.3-38.7 32-45.3l32-11.3 0-33.9 0-21.5c0-35.3 28.7-64 64-64c21.6 0 40.7 10.7 52.4 27.2l26.7 37.9 38.8-25.3c7.5-4.9 16.4-7.7 26.2-7.7c26.5 0 48 21.5 48 48zM64 320l48 0 48 0 320 0 48 0 48 0 0-48 0-48c0-53-43-96-96-96c0-53-43-96-96-96c-19.3 0-37.3 5.7-52.4 15.5C311.3 18.8 277.9 0 240 0C178.1 0 128 50.1 128 112l0 21.5C90.7 146.6 64 182.2 64 224l0 48 0 48zM0 368l0 48 24 0 528 0 24 0 0-48-24 0L24 368 0 368zm64 96l0 48 24 0 112 0 24 0 0-48-24 0L88 464l-24 0zm208 0l0 48 24 0 320 0 24 0 0-48-24 0-320 0-24 0z"/></svg>

<svg xmlns="http://www.w3.org/2000/svg" viewBox="0 0 640 512"><!--! Font Awesome Pro 6.5.2 by @fontawesome - https://fontawesome.com License - https://fontawesome.com/license (Commercial License) Copyright 2024 Fonticons, Inc. --><path d="M432 128v48h48c26.5 0 48 21.5 48 48v48H480 160 112V224c0-20.8 13.3-38.7 32-45.3l32-11.3V133.5 112c0-35.3 28.7-64 64-64c21.6 0 40.7 10.7 52.4 27.2l26.7 37.9 38.8-25.3c7.5-4.9 16.4-7.7 26.2-7.7c26.5 0 48 21.5 48 48zM64 320h48 48H480h48 48V272 224c0-53-43-96-96-96c0-53-43-96-96-96c-19.3 0-37.3 5.7-52.4 15.5C311.3 18.8 277.9 0 240 0C178.1 0 128 50.1 128 112v21.5C90.7 146.6 64 182.2 64 224v48 48zM0 368v48H24 552h24V368H552 24 0zm64 96v48H88 200h24V464H200 88 64zm208 0v48h24H616h24V464H616 296 272z"/></svg>
